Origami/32x32/apps/zegrapher.svg

<svg width="32" height="32" version="1" xmlns="http://www.w3.org/2000/svg">
 <rect transform="matrix(0,-1,-1,0,0,0)" x="-31" y="-30" width="28" height="28" rx="1.4" ry="1.4" style="opacity:.2"/>
 <rect transform="matrix(0,-1,-1,0,0,0)" x="-30" y="-30" width="28" height="28" rx="1.4" ry="1.4" style="fill:#49cbc6"/>
 <path d="m4 8v2h10l-9.9433594 14h13.943359v-2h-10l9.943359-14zm20.017578 6c-1.508837 0-2.768911 0.438375-3.673828 1.335938-0.902722 0.895491-1.34375 2.15649-1.34375 3.667968 0 1.507822 0.440436 2.76549 1.341797 3.664063l2e-3 2e-3c0.905116 0.89333 2.165454 1.330031 3.673781 1.330031 0.688927 0 1.344737-0.08728 1.962891-0.263672h2e-3 2e-3c0.603685-0.176435 1.255033-0.430656 1.796781-0.798828l0.21875-0.148438v-4.789062h-4v2h1.996094v1.75c-0.163795 0.07031-0.319181 0.148438-0.515625 0.191406-0.240777 0.04943-0.952757 0.09375-1.359375 0.09375-1.018077 0-1.988423-0.312678-2.382813-0.730468-0.450746-0.482216-0.738281-1.221892-0.738281-2.300782 0.07045-2.126865 1.35354-2.968628 3.121094-3.039062 0.878906 0.035156 3.878906 0.035156 3.878906 0.035156v-2z" style="fill:#303030"/>
 <path d="M 3.4003906 2 C 2.6247906 2 2 2.6247906 2 3.4003906 L 2 4.4003906 C 2 3.6247906 2.6247906 3 3.4003906 3 L 28.599609 3 C 29.375209 3 30 3.6247906 30 4.4003906 L 30 3.4003906 C 30 2.6247906 29.375209 2 28.599609 2 L 3.4003906 2 z" style="fill:#ffffff;opacity:.2"/>
</svg>

<svg xmlns="http://www.w3.org/2000/svg" width="32" height="32" version="1">
 <rect style="opacity:0.2" width="28" height="28" x="-31" y="-30" rx="1.4" ry="1.4" transform="matrix(0,-1,-1,0,0,0)"/>
 <rect style="fill:#49cbc6" width="28" height="28" x="-30" y="-30" rx="1.4" ry="1.4" transform="matrix(0,-1,-1,0,0,0)"/>
 <path style="fill:#303030" d="M 4,8 4,10 14,10 4.0566406,24 18,24 18,22 8,22 17.943359,8 Z m 20.017578,6 C 22.508741,14 21.248667,14.438375 20.34375,15.335938 19.441028,16.231429 19,17.492428 19,19.003906 c 0,1.507822 0.440436,2.76549 1.341797,3.664063 l 0.002,0.002 C 21.248913,23.563299 22.509251,24 24.017578,24 c 0.688927,0 1.344737,-0.08728 1.962891,-0.263672 l 0.002,0 0.002,0 C 26.588154,23.559893 27.239502,23.305672 27.78125,22.9375 L 28,22.789062 28,18 l -4,0 0,2 1.996094,0 0,1.75 c -0.163795,0.07031 -0.319181,0.148438 -0.515625,0.191406 -0.240777,0.04943 -0.952757,0.09375 -1.359375,0.09375 -1.018077,0 -1.988423,-0.312678 -2.382813,-0.730468 C 21.287535,20.822472 21,20.082796 21,19.003906 21.07045,16.877041 22.35354,16.035278 24.121094,15.964844 25,16 28,16 28,16 l 0,-2 z"/>
 <path style="fill:#ffffff;opacity:0.2" d="M 3.4003906 2 C 2.6247906 2 2 2.6247906 2 3.4003906 L 2 4.4003906 C 2 3.6247906 2.6247906 3 3.4003906 3 L 28.599609 3 C 29.375209 3 30 3.6247906 30 4.4003906 L 30 3.4003906 C 30 2.6247906 29.375209 2 28.599609 2 L 3.4003906 2 z"/>
</svg>
